recipes/mastodon/icon.svg

<svg clip-rule="evenodd" fill-rule="evenodd" stroke-linejoin="round" stroke-miterlimit="2" viewBox="0 0 1024 1024" xmlns="http://www.w3.org/2000/svg"><g fill-rule="nonzero"><path d="m169.446 111.27c-2.545 13.093-22.794 27.422-46.05 30.199-12.127 1.447-24.067 2.777-36.799 2.193-20.822-.954-37.252-4.97-37.252-4.97 0 2.027.125 3.957.375 5.762 2.707 20.549 20.376 21.78 37.113 22.354 16.893.578 31.935-4.165 31.935-4.165l.694 15.272s-11.816 6.345-32.865 7.512c-11.607.638-26.019-.292-42.805-4.735-36.406-9.636-42.667-48.443-43.625-87.819-.292-11.691-.112-22.715-.112-31.935 0-40.264 26.381-52.066 26.381-52.066 13.302-6.109 36.127-8.678 59.856-8.872h.583c23.729.194 46.569 2.763 59.87 8.872 0 0 26.38 11.802 26.38 52.066 0 0 .331 29.707-3.679 50.332" fill="#3088d4" transform="matrix(5.46641 0 0 5.46641 39 4)"/><path d="m142.008 64.062v48.753h-19.315v-47.32c0-9.975-4.197-15.038-12.592-15.038-9.282 0-13.934 6.006-13.934 17.882v25.901h-19.201v-25.901c0-11.876-4.653-17.882-13.935-17.882-8.395 0-12.592 5.063-12.592 15.038v47.32h-19.315v-48.753c0-9.964 2.537-17.882 7.633-23.74 5.255-5.858 12.137-8.861 20.68-8.861 9.884 0 17.369 3.799 22.318 11.398l4.811 8.065 4.812-8.065c4.948-7.599 12.433-11.398 22.318-11.398 8.542 0 15.424 3.003 20.68 8.861 5.095 5.858 7.632 13.776 7.632 23.74" fill="#fff" transform="matrix(5.46641 0 0 5.46641 39 -1.46641)"/></g></svg>

<?xml version="1.0" encoding="UTF-8" standalone="no"?>
<!DOCTYPE svg PUBLIC "-//W3C//DTD SVG 1.1//EN" "http://www.w3.org/Graphics/SVG/1.1/DTD/svg11.dtd">
<svg width="100%" height="100%" viewBox="0 0 1024 1024" version="1.1" xmlns="http://www.w3.org/2000/svg" xmlns:xlink="http://www.w3.org/1999/xlink" xml:space="preserve" xmlns:serif="http://www.serif.com/" style="fill-rule:evenodd;clip-rule:evenodd;stroke-linejoin:round;stroke-miterlimit:2;">
    <g transform="matrix(5.46641,0,0,5.46641,39,4)">
        <path d="M169.446,111.27C166.901,124.363 146.652,138.692 123.396,141.469C111.269,142.916 99.329,144.246 86.597,143.662C65.775,142.708 49.345,138.692 49.345,138.692C49.345,140.719 49.47,142.649 49.72,144.454C52.427,165.003 70.096,166.234 86.833,166.808C103.726,167.386 118.768,162.643 118.768,162.643L119.462,177.915C119.462,177.915 107.646,184.26 86.597,185.427C74.99,186.065 60.578,185.135 43.792,180.692C7.386,171.056 1.125,132.249 0.167,92.873C-0.125,81.182 0.055,70.158 0.055,60.938C0.055,20.674 26.436,8.872 26.436,8.872C39.738,2.763 62.563,0.194 86.292,0L86.875,0C110.604,0.194 133.444,2.763 146.745,8.872C146.745,8.872 173.125,20.674 173.125,60.938C173.125,60.938 173.456,90.645 169.446,111.27" style="fill:rgb(48,136,212);fill-rule:nonzero;"/>
    </g>
    <g transform="matrix(5.46641,0,0,5.46641,39,-1.46641)">
        <path d="M142.008,64.062L142.008,112.815L122.693,112.815L122.693,65.495C122.693,55.52 118.496,50.457 110.101,50.457C100.819,50.457 96.167,56.463 96.167,68.339L96.167,94.24L76.966,94.24L76.966,68.339C76.966,56.463 72.313,50.457 63.031,50.457C54.636,50.457 50.439,55.52 50.439,65.495L50.439,112.815L31.124,112.815L31.124,64.062C31.124,54.098 33.661,46.18 38.757,40.322C44.012,34.464 50.894,31.461 59.437,31.461C69.321,31.461 76.806,35.26 81.755,42.859L86.566,50.924L91.378,42.859C96.326,35.26 103.811,31.461 113.696,31.461C122.238,31.461 129.12,34.464 134.376,40.322C139.471,46.18 142.008,54.098 142.008,64.062" style="fill:white;fill-rule:nonzero;"/>
    </g>
</svg>
